src/assets/outline/Gameboy.svg

<svg width="24" height="24" viewBox="0 0 24 24"  xmlns="http://www.w3.org/2000/svg">
<path d="M16 22.75H8C4.35 22.75 2.25 20.65 2.25 17V7C2.25 3.35 4.35 1.25 8 1.25H16C19.65 1.25 21.75 3.35 21.75 7V17C21.75 20.65 19.65 22.75 16 22.75ZM8 2.75C5.14 2.75 3.75 4.14 3.75 7V17C3.75 19.86 5.14 21.25 8 21.25H16C18.86 21.25 20.25 19.86 20.25 17V7C20.25 4.14 18.86 2.75 16 2.75H8Z" />
<path d="M16.25 11.75H7.75C6.37 11.75 5.25 10.63 5.25 9.25V6.75C5.25 5.37 6.37 4.25 7.75 4.25H16.25C17.63 4.25 18.75 5.37 18.75 6.75V9.25C18.75 10.63 17.63 11.75 16.25 11.75ZM7.75 5.75C7.2 5.75 6.75 6.2 6.75 6.75V9.25C6.75 9.8 7.2 10.25 7.75 10.25H16.25C16.8 10.25 17.25 9.8 17.25 9.25V6.75C17.25 6.2 16.8 5.75 16.25 5.75H7.75Z" />
<path d="M7.99994 18.3297C7.80994 18.3297 7.61994 18.2597 7.46994 18.1097C7.17994 17.8197 7.17994 17.3397 7.46994 17.0497L9.76993 14.7497C10.0599 14.4597 10.5399 14.4597 10.8299 14.7497C11.1199 15.0397 11.1199 15.5197 10.8299 15.8097L8.52994 18.1097C8.37994 18.2597 8.18994 18.3297 7.99994 18.3297Z" />
<path d="M10.3297 18.36C10.1397 18.36 9.94971 18.29 9.79971 18.14L7.49973 15.84C7.20973 15.55 7.20973 15.07 7.49973 14.78C7.78973 14.49 8.26972 14.49 8.55972 14.78L10.8597 17.08C11.1497 17.37 11.1497 17.85 10.8597 18.14C10.7097 18.29 10.5197 18.36 10.3297 18.36Z" />
<path d="M16.51 16.3301C15.96 16.3301 15.5 15.8801 15.5 15.3301C15.5 14.7801 15.94 14.3301 16.49 14.3301H16.51C17.06 14.3301 17.51 14.7801 17.51 15.3301C17.51 15.8801 17.06 16.3301 16.51 16.3301Z" />
<path d="M14.4902 18.4905C13.9402 18.4905 13.4902 18.0505 13.4902 17.5005V17.4805C13.4902 16.9305 13.9402 16.4805 14.4902 16.4805C15.0402 16.4805 15.4902 16.9305 15.4902 17.4805C15.4902 18.0305 15.0402 18.4905 14.4902 18.4905Z" />
</svg>

<?xml version="1.0" encoding="UTF-8"?>
<svg width="24" height="24" viewBox="0 0 24 24" xmlns="http://www.w3.org/2000/svg">
 <path d="m16 22.75h-8c-3.65 0-5.75-2.1-5.75-5.75v-10c0-3.65 2.1-5.75 5.75-5.75h8c3.65 0 5.75 2.1 5.75 5.75v10c0 3.65-2.1 5.75-5.75 5.75zm-8-20c-2.86 0-4.25 1.39-4.25 4.25v10c0 2.86 1.39 4.25 4.25 4.25h8c2.86 0 4.25-1.39 4.25-4.25v-10c0-2.86-1.39-4.25-4.25-4.25h-8z"/>
 <path d="m16.25 11.75h-8.5c-1.38 0-2.5-1.12-2.5-2.5v-2.5c0-1.38 1.12-2.5 2.5-2.5h8.5c1.38 0 2.5 1.12 2.5 2.5v2.5c0 1.38-1.12 2.5-2.5 2.5zm-8.5-6c-0.55 0-1 0.45-1 1v2.5c0 0.55 0.45 1 1 1h8.5c0.55 0 1-0.45 1-1v-2.5c0-0.55-0.45-1-1-1h-8.5z"/>
 <path d="m7.9999 18.33c-0.19 0-0.38-0.07-0.53-0.22-0.29-0.29-0.29-0.77 0-1.06l2.3-2.3c0.28997-0.29 0.76997-0.29 1.06 0s0.29 0.77 0 1.06l-2.3 2.3c-0.15 0.15-0.34 0.22-0.53 0.22z"/>
 <path d="m10.33 18.36c-0.19 0-0.37999-0.07-0.52999-0.22l-2.3-2.3c-0.29-0.29-0.29-0.77 0-1.06s0.76999-0.29 1.06 0l2.3 2.3c0.29 0.29 0.29 0.77 0 1.06-0.15 0.15-0.34 0.22-0.53 0.22z"/>
 <path d="m16.51 16.33c-0.55 0-1.01-0.45-1.01-1s0.44-1 0.99-1h0.02c0.55 0 1 0.45 1 1s-0.45 1-1 1z"/>
 <path d="m14.49 18.49c-0.55 0-1-0.44-1-0.99v-0.02c0-0.55 0.45-1 1-1s1 0.45 1 1-0.45 1.01-1 1.01z"/>
</svg>
